LUT/matrix_red.cube
# Charles Fettinger 3D LUT from 8x8 PNG
TITLE "Matrix Red 8x8x8 LUT"
LUT_3D_SIZE 8
DOMAIN_MIN 0.0 0.0 0.0
DOMAIN_MAX 1.0 1.0 1.0
0.023529 0.031373 0.000000
0.094118 0.031373 0.000000
0.196078 0.031373 0.000000
0.325490 0.035294 0.000000
0.490196 0.043137 0.000000
0.647059 0.050980 0.000000
0.792157 0.054902 0.000000
0.933333 0.058824 0.000000
0.003922 0.117647 0.000000
0.070588 0.117647 0.000000
0.156863 0.117647 0.000000
0.262745 0.125490 0.000000
0.407843 0.133333 0.003922
0.564706 0.149020 0.007843
0.729412 0.164706 0.011765
0.882353 0.168627 0.011765
0.003922 0.207843 0.000000
0.062745 0.211765 0.000000
0.149020 0.211765 0.000000
0.239216 0.211765 0.000000
0.356863 0.219608 0.003922
0.498039 0.235294 0.007843
0.654902 0.250980 0.011765
0.815686 0.262745 0.015686
0.003922 0.301961 0.000000
0.058824 0.305882 0.000000
0.149020 0.309804 0.000000
0.239216 0.309804 0.000000
0.345098 0.309804 0.000000
0.458824 0.317647 0.003922
0.600000 0.329412 0.007843
0.756863 0.345098 0.011765
0.003922 0.400000 0.000000
0.062745 0.407843 0.000000
0.152941 0.411765 0.000000
0.247059 0.411765 0.000000
0.349020 0.415686 0.000000
0.454902 0.415686 0.000000
0.568627 0.419608 0.003922
0.717647 0.431373 0.007843
0.003922 0.501961 0.000000
0.070588 0.505882 0.000000
0.160784 0.509804 0.000000
0.254902 0.513725 0.000000
0.360784 0.517647 0.000000
0.462745 0.517647 0.000000
0.572549 0.517647 0.000000
0.705882 0.521569 0.003922
0.003922 0.603922 0.000000
0.082353 0.611765 0.000000
0.172549 0.615686 0.000000
0.266667 0.619608 0.000000
0.372549 0.623529 0.003922
0.478431 0.623529 0.003922
0.588235 0.623529 0.003922
0.713725 0.627451 0.003922
0.015686 0.721569 0.000000
0.098039 0.729412 0.011765
0.188235 0.733333 0.015686
0.286275 0.737255 0.019608
0.392157 0.741176 0.023529
0.498039 0.745098 0.027451
0.607843 0.745098 0.027451
0.725490 0.745098 0.027451
0.023529 0.035294 0.019608
0.098039 0.031373 0.019608
0.192157 0.031373 0.023529
0.309804 0.035294 0.043137
0.462745 0.043137 0.066667
0.623529 0.047059 0.086275
0.772549 0.054902 0.101961
0.913725 0.054902 0.105882
0.003922 0.117647 0.003922
0.074510 0.121569 0.003922
0.160784 0.121569 0.003922
0.266667 0.129412 0.015686
0.411765 0.137255 0.039216
0.568627 0.152941 0.070588
0.729412 0.164706 0.090196
0.882353 0.172549 0.105882
0.003922 0.211765 0.000000
0.066667 0.215686 0.000000
0.152941 0.215686 0.003922
0.243137 0.215686 0.003922
0.360784 0.223529 0.015686
0.498039 0.235294 0.031373
0.658824 0.250980 0.058824
0.819608 0.266667 0.082353
0.003922 0.305882 0.007843
0.062745 0.309804 0.007843
0.152941 0.313725 0.011765
0.243137 0.313725 0.015686
0.349020 0.313725 0.015686
0.462745 0.321569 0.019608
0.603922 0.333333 0.039216
0.760784 0.349020 0.058824
0.003922 0.403922 0.015686
0.066667 0.411765 0.023529
0.156863 0.415686 0.023529
0.250980 0.415686 0.027451
0.352941 0.419608 0.027451
0.458824 0.419608 0.027451
0.572549 0.423529 0.031373
0.721569 0.435294 0.047059
0.003922 0.501961 0.031373
0.074510 0.509804 0.039216
0.164706 0.513725 0.043137
0.258824 0.517647 0.047059
0.364706 0.521569 0.047059
0.466667 0.521569 0.047059
0.576471 0.521569 0.047059
0.709804 0.525490 0.050980
0.003922 0.607843 0.050980
0.086275 0.615686 0.058824
0.176471 0.619608 0.062745
0.270588 0.623529 0.066667
0.376471 0.627451 0.070588
0.482353 0.627451 0.070588
0.592157 0.627451 0.070588
0.717647 0.631373 0.074510
0.019608 0.725490 0.070588
0.101961 0.733333 0.082353
0.192157 0.737255 0.086275
0.290196 0.741176 0.090196
0.396078 0.745098 0.094118
0.498039 0.749020 0.098039
0.611765 0.749020 0.098039
0.729412 0.749020 0.101961
0.023529 0.031373 0.094118
0.098039 0.035294 0.094118
0.184314 0.031373 0.090196
0.278431 0.027451 0.094118
0.407843 0.031373 0.117647
0.556863 0.035294 0.145098
0.709804 0.043137 0.172549
0.862745 0.047059 0.192157
0.003922 0.121569 0.078431
0.078431 0.121569 0.082353
0.164706 0.121569 0.082353
0.262745 0.125490 0.090196
0.388235 0.133333 0.109804
0.537255 0.141176 0.141176
0.694118 0.152941 0.172549
0.854902 0.160784 0.196078
0.003922 0.211765 0.078431
0.066667 0.215686 0.082353
0.156863 0.219608 0.086275
0.247059 0.219608 0.086275
0.364706 0.227451 0.098039
0.501961 0.235294 0.125490
0.658824 0.254902 0.160784
0.819608 0.266667 0.184314
0.003922 0.305882 0.086275
0.066667 0.309804 0.090196
0.152941 0.313725 0.094118
0.247059 0.313725 0.098039
0.349020 0.313725 0.098039
0.462745 0.321569 0.109804
0.603922 0.333333 0.129412
0.760784 0.349020 0.152941
0.003922 0.407843 0.101961
0.066667 0.411765 0.105882
0.156863 0.415686 0.109804
0.250980 0.419608 0.113725
0.356863 0.419608 0.113725
0.458824 0.419608 0.113725
0.576471 0.423529 0.121569
0.725490 0.439216 0.137255
0.003922 0.505882 0.117647
0.074510 0.513725 0.125490
0.164706 0.517647 0.129412
0.258824 0.521569 0.133333
0.364706 0.521569 0.137255
0.470588 0.521569 0.137255
0.580392 0.521569 0.137255
0.713725 0.525490 0.141176
0.007843 0.607843 0.141176
0.086275 0.615686 0.149020
0.176471 0.619608 0.152941
0.274510 0.627451 0.156863
0.376471 0.627451 0.160784
0.482353 0.631373 0.160784
0.592157 0.631373 0.164706
0.717647 0.631373 0.164706
0.019608 0.725490 0.164706
0.101961 0.733333 0.172549
0.196078 0.741176 0.180392
0.290196 0.745098 0.184314
0.396078 0.749020 0.188235
0.501961 0.749020 0.192157
0.611765 0.749020 0.192157
0.729412 0.752941 0.192157
0.023529 0.031373 0.184314
0.098039 0.031373 0.184314
0.180392 0.031373 0.184314
0.270588 0.027451 0.180392
0.376471 0.023529 0.188235
0.501961 0.027451 0.207843
0.647059 0.027451 0.231373
0.803922 0.035294 0.258824
0.003922 0.117647 0.176471
0.074510 0.121569 0.176471
0.160784 0.121569 0.176471
0.250980 0.121569 0.176471
0.356863 0.121569 0.180392
0.486275 0.125490 0.200000
0.631373 0.133333 0.227451
0.792157 0.141176 0.258824
0.003922 0.211765 0.176471
0.066667 0.215686 0.180392
0.152941 0.219608 0.184314
0.247059 0.219608 0.184314
0.352941 0.219608 0.188235
0.478431 0.227451 0.203922
0.619608 0.239216 0.235294
0.780392 0.250980 0.262745
0.003922 0.305882 0.188235
0.062745 0.309804 0.192157
0.152941 0.313725 0.196078
0.247059 0.313725 0.200000
0.349020 0.313725 0.200000
0.462745 0.321569 0.211765
0.603922 0.333333 0.231373
0.760784 0.349020 0.262745
0.003922 0.407843 0.203922
0.066667 0.411765 0.211765
0.156863 0.415686 0.215686
0.250980 0.419608 0.215686
0.356863 0.419608 0.219608
0.458824 0.419608 0.219608
0.576471 0.423529 0.227451
0.725490 0.439216 0.247059
0.003922 0.505882 0.227451
0.074510 0.513725 0.231373
0.164706 0.517647 0.239216
0.258824 0.521569 0.239216
0.364706 0.521569 0.243137
0.470588 0.521569 0.243137
0.580392 0.521569 0.243137
0.713725 0.529412 0.250980
0.007843 0.607843 0.250980
0.086275 0.615686 0.258824
0.176471 0.619608 0.262745
0.274510 0.627451 0.266667
0.376471 0.627451 0.270588
0.482353 0.631373 0.270588
0.592157 0.631373 0.274510
0.717647 0.631373 0.274510
0.019608 0.725490 0.278431
0.101961 0.733333 0.286275
0.196078 0.741176 0.290196
0.290196 0.745098 0.298039
0.396078 0.749020 0.298039
0.501961 0.749020 0.301961
0.615686 0.749020 0.301961
0.729412 0.752941 0.305882
0.019608 0.027451 0.298039
0.094118 0.027451 0.301961
0.180392 0.027451 0.298039
0.266667 0.027451 0.298039
0.368627 0.023529 0.294118
0.470588 0.019608 0.294118
0.600000 0.019608 0.309804
0.749020 0.019608 0.329412
0.003922 0.117647 0.290196
0.074510 0.121569 0.294118
0.160784 0.121569 0.294118
0.250980 0.117647 0.294118
0.352941 0.117647 0.294118
0.454902 0.113725 0.294118
0.584314 0.121569 0.309804
0.737255 0.125490 0.329412
0.003922 0.211765 0.298039
0.066667 0.215686 0.301961
0.152941 0.215686 0.301961
0.243137 0.215686 0.301961
0.345098 0.215686 0.301961
0.450980 0.215686 0.305882
0.576471 0.219608 0.317647
0.729412 0.231373 0.341176
0.003922 0.301961 0.309804
0.062745 0.309804 0.313725
0.152941 0.313725 0.317647
0.243137 0.313725 0.321569
0.349020 0.313725 0.321569
0.450980 0.313725 0.321569
0.576471 0.321569 0.333333
0.725490 0.329412 0.356863
0.003922 0.403922 0.329412
0.066667 0.411765 0.333333
0.156863 0.415686 0.337255
0.250980 0.419608 0.341176
0.352941 0.419608 0.341176
0.458824 0.419608 0.341176
0.576471 0.423529 0.349020
0.725490 0.439216 0.368627
0.003922 0.501961 0.352941
0.074510 0.509804 0.356863
0.164706 0.513725 0.364706
0.258824 0.517647 0.364706
0.364706 0.521569 0.368627
0.466667 0.521569 0.368627
0.580392 0.521569 0.368627
0.709804 0.525490 0.376471
0.003922 0.607843 0.376471
0.086275 0.615686 0.384314
0.176471 0.619608 0.392157
0.270588 0.623529 0.396078
0.376471 0.627451 0.396078
0.482353 0.627451 0.400000
0.592157 0.631373 0.400000
0.717647 0.631373 0.400000
0.019608 0.725490 0.407843
0.101961 0.733333 0.415686
0.192157 0.737255 0.419608
0.290196 0.745098 0.423529
0.396078 0.745098 0.427451
0.501961 0.749020 0.431373
0.611765 0.749020 0.431373
0.729412 0.752941 0.435294
0.015686 0.023529 0.423529
0.090196 0.027451 0.423529
0.176471 0.023529 0.423529
0.262745 0.023529 0.423529
0.364706 0.019608 0.419608
0.462745 0.015686 0.415686
0.572549 0.011765 0.415686
0.709804 0.007843 0.423529
0.003922 0.113725 0.419608
0.070588 0.117647 0.419608
0.156863 0.117647 0.423529
0.247059 0.117647 0.423529
0.349020 0.113725 0.419608
0.450980 0.113725 0.419608
0.560784 0.109804 0.419608
0.698039 0.113725 0.427451
0.003922 0.207843 0.427451
0.062745 0.211765 0.431373
0.149020 0.211765 0.431373
0.243137 0.215686 0.431373
0.345098 0.215686 0.431373
0.447059 0.211765 0.431373
0.556863 0.211765 0.435294
0.694118 0.215686 0.443137
0.003922 0.301961 0.439216
0.058824 0.305882 0.447059
0.149020 0.309804 0.450980
0.243137 0.309804 0.450980
0.345098 0.313725 0.450980
0.447059 0.309804 0.450980
0.556863 0.309804 0.450980
0.698039 0.317647 0.458824
0.003922 0.403922 0.462745
0.062745 0.407843 0.466667
0.152941 0.411765 0.470588
0.247059 0.415686 0.474510
0.352941 0.415686 0.474510
0.454902 0.415686 0.474510
0.564706 0.415686 0.474510
0.701961 0.423529 0.482353
0.003922 0.501961 0.486275
0.070588 0.509804 0.494118
0.164706 0.513725 0.498039
0.258824 0.517647 0.501961
0.360784 0.517647 0.501961
0.466667 0.521569 0.505882
0.576471 0.521569 0.505882
0.709804 0.525490 0.509804
0.003922 0.603922 0.513725
0.082353 0.611765 0.521569
0.176471 0.619608 0.525490
0.270588 0.623529 0.533333
0.376471 0.623529 0.533333
0.478431 0.627451 0.537255
0.592157 0.627451 0.537255
0.717647 0.631373 0.537255
0.019608 0.721569 0.545098
0.098039 0.729412 0.552941
0.192157 0.737255 0.556863
0.286275 0.741176 0.564706
0.392157 0.745098 0.564706
0.498039 0.745098 0.568627
0.611765 0.749020 0.572549
0.729412 0.749020 0.572549
0.011765 0.019608 0.560784
0.086275 0.019608 0.560784
0.172549 0.019608 0.560784
0.258824 0.019608 0.560784
0.360784 0.015686 0.556863
0.458824 0.011765 0.552941
0.564706 0.007843 0.549020
0.690196 0.003922 0.549020
0.003922 0.109804 0.556863
0.066667 0.113725 0.560784
0.152941 0.113725 0.560784
0.243137 0.113725 0.560784
0.345098 0.109804 0.560784
0.447059 0.109804 0.556863
0.552941 0.105882 0.552941
0.678431 0.101961 0.552941
0.003922 0.203922 0.564706
0.058824 0.207843 0.572549
0.145098 0.211765 0.572549
0.239216 0.211765 0.572549
0.341176 0.211765 0.572549
0.443137 0.207843 0.572549
0.552941 0.207843 0.572549
0.678431 0.203922 0.568627
0.003922 0.298039 0.584314
0.058824 0.301961 0.588235
0.145098 0.305882 0.592157
0.239216 0.309804 0.592157
0.341176 0.309804 0.596078
0.447059 0.309804 0.596078
0.552941 0.305882 0.592157
0.678431 0.305882 0.592157
0.003922 0.400000 0.603922
0.062745 0.403922 0.611765
0.152941 0.407843 0.615686
0.243137 0.411765 0.619608
0.349020 0.415686 0.619608
0.450980 0.415686 0.619608
0.560784 0.415686 0.619608
0.686275 0.415686 0.619608
0.003922 0.498039 0.635294
0.070588 0.505882 0.643137
0.160784 0.509804 0.647059
0.254902 0.513725 0.650980
0.360784 0.517647 0.654902
0.462745 0.517647 0.654902
0.572549 0.517647 0.654902
0.698039 0.517647 0.654902
0.003922 0.600000 0.666667
0.078431 0.611765 0.674510
0.172549 0.615686 0.678431
0.266667 0.619608 0.682353
0.372549 0.623529 0.686275
0.478431 0.623529 0.686275
0.588235 0.623529 0.690196
0.713725 0.627451 0.690196
0.015686 0.717647 0.698039
0.098039 0.729412 0.705882
0.188235 0.733333 0.713725
0.286275 0.737255 0.717647
0.392157 0.741176 0.721569
0.498039 0.745098 0.721569
0.607843 0.745098 0.725490
0.725490 0.745098 0.725490
0.007843 0.015686 0.713725
0.082353 0.015686 0.713725
0.164706 0.015686 0.713725
0.254902 0.011765 0.713725
0.356863 0.011765 0.709804
0.454902 0.007843 0.705882
0.560784 0.003922 0.701961
0.682353 0.003922 0.698039
0.003922 0.105882 0.709804
0.062745 0.105882 0.713725
0.149020 0.109804 0.713725
0.239216 0.109804 0.713725
0.341176 0.105882 0.713725
0.443137 0.105882 0.713725
0.549020 0.101961 0.709804
0.670588 0.098039 0.705882
0.003922 0.200000 0.721569
0.054902 0.203922 0.725490
0.141176 0.203922 0.729412
0.235294 0.207843 0.729412
0.337255 0.207843 0.729412
0.439216 0.203922 0.729412
0.545098 0.203922 0.725490
0.670588 0.200000 0.725490
0.003922 0.294118 0.741176
0.050980 0.298039 0.745098
0.141176 0.301961 0.749020
0.235294 0.301961 0.752941
0.337255 0.305882 0.752941
0.443137 0.305882 0.752941
0.549020 0.301961 0.752941
0.674510 0.301961 0.749020
0.003922 0.396078 0.764706
0.058824 0.400000 0.772549
0.149020 0.403922 0.776471
0.239216 0.407843 0.776471
0.345098 0.411765 0.780392
0.447059 0.411765 0.780392
0.560784 0.411765 0.780392
0.682353 0.411765 0.780392
0.003922 0.494118 0.792157
0.066667 0.501961 0.800000
0.156863 0.505882 0.803922
0.250980 0.509804 0.807843
0.356863 0.513725 0.811765
0.458824 0.513725 0.811765
0.568627 0.513725 0.811765
0.694118 0.513725 0.811765
0.003922 0.600000 0.823529
0.074510 0.607843 0.831373
0.168627 0.611765 0.835294
0.262745 0.615686 0.843137
0.368627 0.619608 0.843137
0.474510 0.619608 0.847059
0.584314 0.623529 0.847059
0.709804 0.623529 0.847059
0.011765 0.705882 0.858824
0.094118 0.713725 0.870588
0.184314 0.721569 0.874510
0.282353 0.725490 0.878431
0.388235 0.729412 0.882353
0.494118 0.733333 0.886275
0.603922 0.733333 0.886275
0.721569 0.733333 0.890196
